svg/black/xtz.svg

<svg xmlns="http://www.w3.org/2000/svg" width="32" height="32" viewBox="0 0 32 32">
  <path fill-rule="evenodd" d="M16,32 C7.163444,32 0,24.836556 0,16 C0,7.163444 7.163444,0 16,0 C24.836556,0 32,7.163444 32,16 C32,24.836556 24.836556,32 16,32 Z M18.1894175,26 C19.1832455,26 20.1071654,25.7937159 20.9611772,25.3814132 C21.815189,24.9691105 22.4519191,24.3428245 22.8710975,23.5028208 C23.2902759,22.6628171 23.5,21.754052 23.5,20.7765256 C23.5,20.34909 23.4416983,19.8603268 23.3250949,19.3105014 C23.216589,18.7606759 22.9720458,18.187753 22.5914653,17.5922637 C22.2111547,16.9888097 21.6675454,16.5154448 20.9611772,16.1719034 C20.2623666,15.8203974 19.6334641,15.6449099 19.0744696,15.6449099 C18.7327569,15.675441 18.4066993,15.7519016 18.0962968,15.874026 L23.2670631,10.7880743 L22.4284365,9.96320338 L13.996824,9.98630082 L13.996824,6.41230271 L13.18168,6 L11.0156101,6 L11.0156101,6.59548936 L11.7608461,7.32876694 L11.7608461,9.98630082 L8.5,9.98630082 L8.5,11.1547131 L11.7608461,11.1547131 L11.7608461,17.431909 C11.7608461,18.3481077 12.0248232,19.0736862 12.5527774,19.6081133 C13.0807317,20.1428059 14.0356918,20.4101523 15.4176579,20.4101523 C15.9766523,20.4101523 16.4892214,20.2572312 16.9550951,19.9519201 C17.4206989,19.6463436 17.7856243,19.2035098 18.0496014,18.6231532 C18.0806417,18.4856305 18.1000756,18.3786388 18.1079031,18.3024438 C18.1079031,18.1420891 18.0536502,18.0008496 17.9448743,17.8784596 C17.8282709,17.7945655 17.7275925,17.7526184 17.6420294,17.7526184 C17.5877764,17.7526184 17.5373023,17.7717335 17.4906069,17.8096983 C17.4441815,17.8404949 17.4053137,17.8901411 17.3742735,17.958637 C17.1256815,18.310143 16.8306642,18.6077549 16.4892214,18.8522693 C16.1475087,19.0965181 15.7904108,19.2186426 15.4176579,19.2186426 C14.936399,19.2186426 14.5793011,19.0508542 14.3463642,18.7147465 C14.1134274,18.3786388 13.996824,17.9512033 13.996824,17.431909 L13.996824,11.1547131 L20.37897,11.1547131 L15.7671981,17.2027929 L15.7671981,17.706689 L16.7920663,17.2027929 C17.3510608,16.8972164 17.8166646,16.7445608 18.1894175,16.7445608 C18.7562395,16.7445608 19.2841938,16.8934995 19.7732802,17.191377 C20.2623666,17.4889889 20.6310708,17.947221 20.8796628,18.5658078 C21.1358124,19.1766955 21.2640221,19.9136899 21.2640221,20.7765256 C21.2640221,21.5708654 21.1474187,22.2810455 20.9144819,22.9073314 C20.681545,23.5333519 20.3206683,24.0069823 19.8315819,24.3276917 C19.3422255,24.6484011 18.7951073,24.8087558 18.1894175,24.8087558 C17.7545841,24.8087558 17.3197506,24.7476936 16.8851871,24.6253037 C16.4503536,24.5108784 16.1321235,24.3162757 15.9302269,24.0412303 C16.1631638,23.9724689 16.3647905,23.8275125 16.5356468,23.6058301 C16.7065032,23.3844132 16.7920663,23.0982172 16.7920663,22.7467113 C16.7920663,22.456533 16.7337646,22.2122841 16.6171612,22.0136992 C16.5008277,21.8151142 16.3415777,21.6587419 16.1396811,21.5440511 C15.9377845,21.4296258 15.6894625,21.3722804 15.3944451,21.3722804 C15.0994278,21.3722804 14.8508358,21.4296258 14.6492091,21.5440511 C14.4473125,21.6587419 14.2880625,21.8151142 14.1717291,22.0136992 C14.0551257,22.2122841 13.996824,22.456533 13.996824,22.7467113 C13.996824,23.5410511 14.3307092,24.2817623 14.9984795,24.9691105 C15.6662498,25.6564587 16.7297159,26 18.1894175,26 Z"/>
</svg>

<svg xmlns="http://www.w3.org/2000/svg" width="32" height="32"><path fill-rule="evenodd" d="M16 32C7.163 32 0 24.837 0 16S7.163 0 16 0s16 7.163 16 16-7.163 16-16 16zm2.19-6c.993 0 1.917-.206 2.771-.619a4.037 4.037 0 0 0 1.91-1.878 6.02 6.02 0 0 0 .629-2.726 7.16 7.16 0 0 0-.175-1.466c-.108-.55-.353-1.123-.734-1.719-.38-.603-.923-1.077-1.63-1.42-.699-.352-1.328-.527-1.887-.527a3.51 3.51 0 0 0-.978.229l5.171-5.086-.839-.825-8.431.023V6.412L13.182 6h-2.166v.595l.745.734v2.657H8.5v1.169h3.26v6.277c0 .916.265 1.642.793 2.176.528.535 1.483.802 2.865.802.559 0 1.071-.153 1.537-.458.466-.306.83-.748 1.095-1.329a2.92 2.92 0 0 0 .058-.32.619.619 0 0 0-.163-.425c-.117-.083-.217-.125-.303-.125a.236.236 0 0 0-.151.057.342.342 0 0 0-.117.149 3.76 3.76 0 0 1-.885.893c-.341.245-.699.367-1.071.367-.482 0-.839-.168-1.072-.504-.233-.336-.35-.764-.35-1.283v-6.277h6.383l-4.612 6.048v.504l1.025-.504c.56-.306 1.025-.458 1.397-.458a2.99 2.99 0 0 1 1.584.446c.49.298.858.756 1.107 1.375.256.61.384 1.348.384 2.21 0 .795-.117 1.505-.35 2.131-.232.626-.593 1.1-1.082 1.42a2.93 2.93 0 0 1-1.643.482c-.434 0-.87-.061-1.304-.184-.435-.114-.753-.309-.955-.584.233-.069.435-.213.606-.435.17-.222.256-.508.256-.86 0-.29-.058-.534-.175-.732a1.27 1.27 0 0 0-.477-.47c-.202-.114-.45-.172-.746-.172-.295 0-.543.058-.745.172a1.27 1.27 0 0 0-.477.47c-.117.198-.175.443-.175.733 0 .794.334 1.535 1.001 2.222.668.687 1.732 1.031 3.191 1.031z"/></svg>
